X: 30469
T: Old Wheels Of The World, The
R: reel
M: 4/4
K: Dmixolydian
eA A2 eA A2|GEEF G3E|A3 B cBcd|efge dgfg|
eA A2 eA A2|GE E2 G3E|A3 B c3d|efge d2Bc||
dg g2 dgfg|ea a2 eaag|efge defg|afge d2 Bc|
dg g2 dgfg|ea a2 eaag|efge defg|afge d4||

